X: 8
T: Lord Nelson's Whim
%C: Mr. Gray
%R: jig
B: Mr. Gray "24 Country Dances for the Year 1803" p.4 #2
S: http://imslp.org/wiki/24_Country_Dances_for_the_Year_1803_(Various)  2013-12-2
Z: 2013 John Chambers <jc:trillian.mit.edu>
M: 6/8
L: 1/8
K: F
|:\
fag    fdB | cAF F3  | dcB AGF | GEC C3 |\
cfe {g}fef | dfe fed | cBA GFE | F3  F3 :|
|:\
EGE cGE  | FAF cAF | cBG cAF | GEC C3 |\
fef cd_e | dcd Bcd | cBA GFE | F3  F3 :|
% - - - - - - - - - - - - - - - - - - - - - - - - -
%%begintext align
%% Turn your partner with the right hand & cast off 1 Cu
%% turn with the left & cast off another Cu. :|: lead
down 1 Cu: up again & Pousett with the 2d Cu:
%%endtext

%%sep 1 1 500
%%sep 1 1 500
